X: 1
T:The Duellists - schottische/schottisch/scottish
C:Nigel Eaton
D:transkription CD "The Duellists"
Z:abc transcription Simon Wascher
N:please mail errors to: simon.wascher@chello.at
M:2/4
L:1/16
K:D
A3^G AB^G2|A^GAB^F4|A^GAB FBA^G|E4F2D2|
A3^G ABAB|=c2BAF4|EA^G2 E=GF2|1D4DFFD:|2DFGA GEGF||
|:d3c dec2|dcde A2ce|cBA2 FA^G2|E=GF2E4|
d3c dede|f2edA4|FA^G2 E=GF2|1DFFD F2DF:|2D8|]
